X:70
T: White Lightning, My Ass!
C: BB
N: Refers to an actual beast of burden (details on request)
M: 6/8
Q: 1/8=320
L: 1/8
R: jig
K: A
E |"A"Afe cBA | "Bm"BAB "F#m"cAF | "A"EFA "Bm"BAB | "A"cdc "E"B2 E |
"A"Afe cBA | "Bm"BAB "F#m"cAF | "E"EGB "E7"dcB | "A"cAA "A"A2 :|
B|"A"ecA ecA |"Bm"fdB fdB | "E"gfg gab | "A"aga "E"gfe |
"A"ecA ecA |"Bm"dBF dBF | "E"EGB "E7"dcB |"A"cAA "A"A2 :|
